!!! OTL: Berkowitz408
!!! Chapter: 1
!!! Section: III
!!! Page: 101
!!! Mode: 
!!! Encoder: DJB
**kern
*staff1
*I"Piano
=1-
*clefF4
*k[]
*C:
*M4/4
8.D#\L
16E\Jk
8.G\L
[16F\Jk
2F\]
=2
8.E/L
16GG/Jk
8.E\L
[16D\Jk
2D\]
=3
8.D#\L
16E\Jk
8.A\L
[16G\Jk
2G\]
=4
8.F/L
16GG/Jk
8.F\L
[16E\Jk
2E\]
=5
8.D#\L
16E\Jk
8.d\L
[16c\Jk
2c\]
=6
8.B\L
16C\Jk
8.B\L
[16A\Jk
2A\]
=7
!!linebreak:original
8G\
4E\
8G\
8G-\
4E-\
8G-\
=8
8.F/L
16GG/Jk
8.E/L
[16C/Jk
2C/]
==
*-
